X: 962
T: Miserere - Quoniam iniquitatem
C: August Ferdinand Häser
L: 1/4
M: C
N: Derived from pl-kk--kk-i-513--004_haser-august-ferdinand--miserere-quoniam-iniquitatem.krn
V: 1 clef=treble
V: 2 clef=treble
V: 3 clef=tenor
V: 4 clef=bass
V: 5 clef=treble
V: 6 clef=bass
K: C
[V:1] c>cB2- | 
[V:2] G>GG2- | 
[V:3] E>EF2- | 
[V:4] C,>C,D,2- | 
[V:5] [c2E2][B2F2]- | 
[V:6] [G,2C,2][G,2D,2] | 
[V:1] B_BBB | 
[V:2] GGGG | 
[V:3] FCCC | 
[V:4] D,E,E,E, | 
[V:5] [BF][_B3G3] | 
[V:6] [G,D,][C3E,3] | 
[V:1] A3A | 
[V:2] GF/E/F2 | 
[V:3] C2D2 | 
[V:4] F,2D,C, | 
[V:5] A2F2 & GF/E/D2 | 
[V:6] C2x2 & F,2D,C, | 
[V:1] G4 | 
[V:2] FE/D/E2 | 
[V:3] D2C_B, | 
[V:4] _B,,2C,2 | 
[V:5] G4 & FE/D/E2 | 
[V:6] D2C_B, & _B,,2C,2 | 
[V:1] FAAd | 
[V:2] FAAA | 
[V:3] A,FFF | 
[V:4] F,zz2 | 
[V:5] [FA,]A2d | 
[V:6] F,F3 | 
[V:1] d2^c2 | 
[V:2] G4 | 
[V:3] E4- | 
[V:4] zA,A,A, | 
[V:5] [d2G2]^c2 | 
[V:6] E4 & zA,3 | 
[V:1] zAAf | 
[V:2] F3A | 
[V:3] E2D2- | 
[V:4] D,2D2 | 
[V:5] zA2f & F3A | 
[V:6] [D4D,4] | 
[V:1] f2e2 | 
[V:2] A3G | 
[V:3] D2^C2 | 
[V:4] zA,A,A, | 
[V:5] f2e2 & A3G | 
[V:6] D2^C2 & zA,3 | 
[V:1] d3d | 
[V:2] F2D2 | 
[V:3] zDGF | 
[V:4] _B,2B,2 | 
[V:5] d4 & F2GF | 
[V:6] _B,2-[D2B,2] | 
[V:1] cd/e/f2- | 
[V:2] G2F2 | 
[V:3] ECC2 | 
[V:4] _B,3A, | 
[V:5] cd/e/f2 & G2F2 | 
[V:6] EC3 & _B,3A, | 
[V:1] f2e2- | 
[V:2] _BA/G/G2 | 
[V:3] D2C2 | 
[V:4] G,A,/_B,/CB, | 
[V:5] f2e2 & _BA/G/G2 | 
[V:6] D2CC & G,A,/_B,/C_B, | 
[V:1] e2d2- | 
[V:2] F4 | 
[V:3] C2_B,2- | 
[V:4] A,F,_B,A, | 
[V:5] e2d2 & F4 | 
[V:6] C2B,2 & A,F,B,A, | 
[V:1] d2^c2 | 
[V:2] EF/G/E2 | 
[V:3] B,2A,2 | 
[V:4] G,F,/E,/A,G, | 
[V:5] d2^c2 & EF/G/E2 | 
[V:6] _B,3A, & G,F,/E,/A,G, | 
[V:1] dd2d | 
[V:2] DDE^F | 
[V:3] A,A,!accent!_B,C | 
[V:4] F,F,G,A, | 
[V:5] d4 & D2E^F | 
[V:6] [A,2F,2][_B,G,][CA,] | 
[V:1] d2d2 | 
[V:2] G2E2 | 
[V:3] D2!accent!_B,2 | 
[V:4] _B,2G,2 | 
[V:5] d4 & G2E2 | 
[V:6] [D2_B,2][B,2G,2] | 
[V:1] d2^c2 | 
[V:2] F2E2 | 
[V:3] A,4 | 
[V:4] A,2A,,2 | 
[V:5] [d2F2][^c2E2] | 
[V:6] A,2[A,2A,,2] | 
[V:1] d2z2 |]  
[V:2] F2z2 |]  
[V:3] A,2z2 |]  
[V:4] D,2z2 |]  
[V:5] [d2F2]z2 |]  
[V:6] [A,2D,2]z2 |]  

